!!!!SEGMENT: pl-stab--75a--005_rodowski-aleksander--missa-pastorales-sanctus.krn
!!!cenid: 18xx:3408
!!!COM: Rodowski, Aleksander
!!!COM-rismID:
!!!CDT: <1790->1810
!!!CNT: Polish
!!!OPR: Missa Pastorales
!!!OTL: Sanctus
!!!OMV: 005
!!!PDT: 1850
!!!AGN:
!!!SMS-siglum: PL-STAb
!!!SMS-shelfmark: 75a
!!!SMS-shelfwork: M
!!!SMS-variant: Partytura PL-STAb 75a:4-5,10
!!!SMS-altvar: Canto PL-STAb 75a:6, Organo PL-STAb 75a:8
!!!NIFC-rismSourceID: 301050718
!!!NIFC-islandoraID: pl-stab:4458
!!!URL-pdf-islandora: https://repozytorium.nifc.pl/islandora/object/pl-stab%3A4458/datastream/PDF/view
!!!URL-scan: https://polish.musicsources.pl/pl/lokalizacje/galeria/rekopisy/4548 @EN{Scan on Polish Music Herritage in Open Access Website} @PL{Skany w portalu Dziedzictwo Muzyki Polskiej w otwartym dostępie}
!!!ONB-nifc: UWAGA: na podstawie partytury (s. 3-5, 10-11). W źródle znajdują się także głosy. Proszę o wypełnienie pól SMS:variant i SMS:altvar. UWAGA: części Mszy: 1. Kyrie, 2. Gloria, 3. Credo, 4. Et incarnatus, 5. Sanctus, 6. Benedictus, 7. Agnus Dei
!!!AIN: 1 bass 1 organ 1 soprn
!!!key: C
!!!OMD: Andante
**kern	**kern	**kern	**kern	**text
*part3	*part3	*part2	*part1	*part1
*staff4	*staff3	*staff2	*staff1	*staff1
*I"Organo	*I"Organo	*I"Bass	*I"Cant	*
*Iorgan	*Iorgan	*Ibass	*Isoprn	*
*ICklav	*ICklav	*ICvox	*ICvox	*
*IGacmp	*IGacmp	*IGcoro	*IGcoro	*
*>[A,A,B,B,C,D,D]	*>[A,A,B,B,C,D,D]	*>[A,A,B,B,C,D,D]	*>[A,A,B,B,C,D,D]	*>[A,A,B,B,C,D,D]
*>A	*>A	*>A	*>A	*>A
*clefF4	*clefG2	*clefF4	*clefG2	*
*k[]	*k[]	*k[]	*k[]	*
*C:	*C:	*C:	*C:	*
*M2/4	*M2/4	*M2/4	*M2/4	*
=1	=1	=1	=1	=1
!	!	!	!LO:TX:a:t=	!
4C 4CC/	4ee 4cc 4g\	4C\	4ee 4cc\	San-
4D 4DD/	4ff 4dd 4b 4g\	4D\	4ff 4dd\	-ctus
=2	=2	=2	=2	=2
*clefG2	*	*	*	*
*^	*	*	*	*
16b/LL	2r	32dd\LLL	2r	2r	.
.	.	(32gg\	.	.	.
(<16g/	.	32ff#X\	.	.	.
.	.	32gg\JJJ)	.	.	.
16b/	.	(32aa\LLL	.	.	.
.	.	32gg\	.	.	.
16dd/JJ)	.	32ff#X\	.	.	.
.	.	32gg\JJJ)	.	.	.
(<16dd/LL	.	(16ffn\LL	.	.	.
16cc/	.	16ee\)	.	.	.
16cc/	.	16ee\	.	.	.
16cc/JJ)	.	16ee\JJ	.	.	.
*v	*v	*	*	*	*
=3	=3	=3	=3	=3
*clefF4	*	*	*	*
4E 4EE\	4cc 4g 4e\	4E\	4cc 4e\	San-
4F 4FF\	4dd 4b 4a@ 4f\	4F\	4dd 4f\	-ctus
*clefG2	*	*	*	*
=4	=4	=4	=4	=4
(16d/LL	(32cc\LLL	2r	2r	.
.	32b\	.	.	.
16f/	32a\	.	.	.
.	32g\JJJ)	.	.	.
16d/	16a\LL	.	.	.
16f/JJ)	16b\JJ	.	.	.
*clefF4	*	*	*	*
!	!LO:TX:a:t=P:problem=mixed beam	!	!	!
8GL 8C\	8cc\L	.	.	.
!	!	!LO:TX:b:i:t=VS&colon;	!	!
8CJ 8CC\	8c/J	.	.	.
!!LO:PB:g=original
=5:|!|:	=5:|!|:	=5:|!|:	=5:|!|:	=5:|!|:
*>B	*>B	*>B	*>B	*>B
!LO:TX:a:t=P:problem=mixed beam	!	!	!	!
16GG/LL	(16dd\LL	8G\	16dd\LL	Do-
16B 16G 16D\	16gg\	.	16gg\JJ	.
16B 16G 16D\	16dd\	8r	16dd\	-mi-
16BJJ 16G 16D\	16b\JJ)	.	16bn\	-nus
16D\LL	(16dd\LL	8D\	16dd\LL	De-
16c 16A 16F#X\	16cc\	.	16cc\JJ	.
16c 16A 16F#\	16a\	8r	16a\LL	-us
16cJJ 16A 16F#\	16f#X\JJ)	.	16f#X\JJ	.
=6	=6	=6	=6	=6
16GG/	8.g\L	4G\	8.g/	Sa-
16BLL 16G 16D\	.	.	.	.
16B 16G 16D\	.	.	.	.
16BJJ 16G 16D\	16b\Jk	.	16bn\	-ba-
16D\LL	(16b\LL	16D\LL	8a/	-oth
16c 16A 16F\	16a\	16D\	.	.
16c 16A 16F\	16f#X\	16F#X\	8r	.
16cJJ 16A 16F\	16d\JJ)	16D\JJ	.	.
=7	=7	=7	=7	=7
16GG/	(16dd\LL	8G\	16dd\LL	Do-
16BLL 16G 16D\	16gg\	.	16gg\JJ	.
16B 16G 16D\	16dd\	8r	16dd\LL	-mi-
16BJJ 16G 16D\	16b\JJ)	.	16b\JJ	-nus
16D\LL	(16dd\LL	8D\	16dd\LL	De-
16c 16A 16F#X\	16cc\	.	16cc\JJ	.
16c 16A 16F#\	16a\	8r	16a\LL	-us
16cJJ 16A 16F#\	16f#X\JJ)	.	16f#X\JJ	.
=8	=8	=8	=8	=8
*	*	*^	*	*
!	!	!	!LO:TX:t=P:problem=mixed beam	!	!
16GG/LL	16g\LL	8G/L	8G\L	8g/	Sa-
(32AA/L	32a\L	.	.	.	.
32BB/JJJ)	32b\JJJ	.	.	.	.
!LO:TX:t=P:problem=połączony łuk	!	!	!	!	!
(32C\LLL	(32cc\LLL	8G/	8GG/J	8g/	-ba-
32D\	32dd\	.	.	.	.
32E\	32ee\	.	.	.	.
32F#X\JJJ)	32ff#X\JJJ	.	.	.	.
8G\	8gg\)	8GJ	8GG/	8g/	-oth
8r	8r	8r	8ryy	8r	.
*	*	*v	*v	*	*
=9	=9	=9	=9	=9
4C 4CC\	4ee 4cc 4g\	4C\	4ee 4cc\	San-
4D 4DD\	4ff 4dd 4b 4g\	4D\	4ff 4dd\	-ctus
*clefG2	*	*	*	*
=10	=10	=10	=10	=10
*^	*	*	*	*
(<16b/LL	2r	32dd\LLL	2r	2r	.
.	.	32gg\	.	.	.
16g/	.	32ff#X\	.	.	.
.	.	32gg\JJJ	.	.	.
16b/	.	32aa\LLL	.	.	.
.	.	32gg\	.	.	.
16dd/JJ)	.	32ff#\	.	.	.
.	.	32gg\JJJ	.	.	.
16dd/LL	.	16ffn\LL	.	.	.
16cc/	.	16ee\	.	.	.
16cc/	.	16ee\	.	.	.
16cc/JJ	.	16ee\JJ	.	.	.
*v	*v	*	*	*	*
!!LO:LB:g=original
=11	=11	=11	=11	=11
*clefF4	*	*	*	*
4E 4EE\	4cc 4g 4e\	4E\	4cc 4e\	.
4F 4FF\	4dd 4b 4a@ 4f\	4F\	4dd 4f\	.
=12	=12	=12	=12	=12
*clefG2	*	*	*	*
16d/LL	(32cc\LLL	2r	2r	.
.	32b\	.	.	.
16f/	32a\	.	.	.
.	32g\JJJ)	.	.	.
16d/	16a\LL	.	.	.
16f/JJ	16b\JJ	.	.	.
*clefF4	*	*	*	*
!	!LO:TX:a:t=P:problem=mixed beam	!	!	!
8GL 8C\	8cc\L	.	.	.
8CJ 8CC\	8c/J	.	.	.
=13:|!	=13:|!	=13:|!	=13:|!	=13:|!
!!!OMD: Allegro
*>C	*>C	*>C	*>C	*>C
*M2/4	*M2/4	*M2/4	*M2/4	*
*	*	*	*^	*
16C\LL	4cc\	4C\	4cc\	4e\	ple-
16G\	.	.	.	.	.
16E\	.	.	.	.	.
16G\JJ	.	.	.	.	.
*rep	*	*	*	*	*
16C\LL	8cc\L	4c\	8cc\	8e\	-ni-
16G\	.	.	.	.	.
16E\	8cc\J	.	8cc\	8e\	-sunt
16G\JJ	.	.	.	.	.
*Xrep	*	*	*	*	*
=14	=14	=14	=14	=14	=14
16BB\LL	4dd 4b\	4B\	4dd\	4f\	Cae-
16G\	.	.	.	.	.
16F\	.	.	.	.	.
16G\JJ	.	.	.	.	.
16GG\LL	8ddL 8g\	4G\	8dd\	8f\	-li
16G\	.	.	.	.	.
16F 16D\	8ddJ 8g\	.	8dd\	8f\	et
16G\JJ	.	.	.	.	.
=15	=15	=15	=15	=15	=15
16C\LL	4.ee 4.cc\	8c\L	4.ee\	4.g\	ter-
16G\	.	.	.	.	.
16E\	.	8G\	.	.	.
16G\JJ	.	.	.	.	.
*rep	*	*	*	*	*
16C\LL	.	8E\	.	.	.
16G\	.	.	.	.	.
16E\	8dd 8b\	8G\J	8dd\	8f\	.
16G\JJ	.	.	.	.	.
*Xrep	*	*	*	*	*
=16	=16	=16	=16	=16	=16
16C/LL	4cc 4e\	4C/	4cc\	4e\	-ra
16C/	.	.	.	.	.
16GG/	.	.	.	.	.
16EE/JJ	.	.	.	.	.
4CC/	4r	4r	4r	4ryy	.
*	*	*	*v	*v	*
=17	=17	=17	=17	=17
16C\LL	4ee 4cc\	4C\	4ee 4cc\	glo-
16G\	.	.	.	.
16E\	.	.	.	.
16G\JJ	.	.	.	.
*rep	*	*	*	*
16C\LL	8eeL 8cc\	4c\	8ee 8cc\	-ri-
16G\	.	.	.	.
16E\	8eeJ 8cc\	.	8ee 8cc\	-a
16G\JJ	.	.	.	.
*Xrep	*	*	*	*
=18	=18	=18	=18	=18
16BB\LL	4ff 4dd 4b 4g\	4B\	4ff 4dd\	tu-
16G\	.	.	.	.
16F\	.	.	.	.
16G\JJ	.	.	.	.
16GG\LL	8ffL 8dd 8b 8g\	4G\	8ff 8dd\	.
16G\	.	.	.	.
16F 16D\	8ffJ 8dd 8b 8g\	.	8ff 8dd\	-a
16G\JJ	.	.	.	.
!!LO:LB:g=original
=19	=19	=19	=19	=19
16C\LL	4.gg 4.ee\	8c\L	4.gg 4.ee\	Os-
16G\	.	.	.	.
16E\	.	8G\	.	.
16G\JJ	.	.	.	.
!LO:TX:a:t=P:problem=mixed beam	!	!	!	!
16GG/LL	.	8E\	.	.
16G\	.	.	.	.
16F 16D\	8ff 8dd\	8G\J	8ff 8dd\	-an-
16G\JJ	.	.	.	.
=20	=20	=20	=20	=20
!LO:TX:a:t=P:problem=mixed beam	!	!	!	!
16C/LL	4ee 4cc\	4C/	4ee 4cc\	-na
16c\	.	.	.	.
16G\	.	.	.	.
16E\JJ	.	.	.	.
4C/	4gg\	4r	4r	.
=21!|:	=21!|:	=21!|:	=21!|:	=21!|:
*>D	*>D	*>D	*>D	*>D
!LO:N:vis=2.	!	!	!	!
[2D [2GG/	(16ff\LL	2r	2r	.
.	16gg\	.	.	.
.	16ff\	.	.	.
.	16ee\JJ)	.	.	.
.	(16dd\LL	.	.	.
.	16ee\	.	.	.
.	16dd\	.	.	.
.	16cc\JJ)	.	.	.
=22	=22	=22	=22	=22
!LO:N:vis=2.	!	!	!	!
2D] 2GG/]	(16b\LL	2r	2r	.
.	16cc\	.	.	.
.	16b\	.	.	.
.	16a\JJ)	.	.	.
.	4g/	.	.	.
=23	=23	=23	=23	=23
!LO:N:vis=2.	!	!	!	!
[2E [2GG/	8cc\L	2r	2r	.
.	8ee\	.	.	.
.	8gg\	.	.	.
.	8ccc\J	.	.	.
=24	=24	=24	=24	=24
!LO:N:vis=2.	!	!	!	!
2E] 2GG/]	4.gg\	2r	2r	.
.	8ee\	.	.	.
=25	=25	=25	=25	=25
!LO:N:vis=2.	!	!	!	!
[2D [2GG/	(16ff\LL	2r	2r	.
.	16gg\	.	.	.
.	16ff\	.	.	.
.	16ee\JJ)	.	.	.
.	(16dd\LL	.	.	.
.	16ee\	.	.	.
.	16dd\	.	.	.
.	16cc\JJ)	.	.	.
!!LO:PB:g=original
=26	=26	=26	=26	=26
!LO:N:vis=2.	!	!	!	!
2D] 2GG/]	(16b\LL	2r	2r	.
.	16cc\	.	.	.
.	16b\	.	.	.
.	16a\JJ)	.	.	.
.	4g/	.	.	.
=27	=27	=27	=27	=27
8C\L	8cc\L	2r	2r	.
8E\	8gg\	.	.	.
8G\	8aa\	.	.	.
8E\J	8bb\J	.	.	.
=28	=28	=28	=28	=28
4C 4CC/	4ccc 4gg 4ee 4cc\	2r	2r	.
4r	4r	.	.	.
=:|!	=:|!	=:|!	=:|!	=:|!
*-	*-	*-	*-	*-
!!!system-decoration: (<s1,s2>{s3,s4})
!!!RDF**kern: < = below
!!!RDF**kern: @ = marked note, color=grey
!!!ENC: Berenika Jozajtis
!!!END: 2021-11-17
!!!ENC: Marta Lawrence
!!!END: 2021-12-12
